symbolic/mimes/text-markdown-symbolic.svg

<svg width="16px" height="16px" version="1.1" viewBox="0 0 16 16" xmlns="http://www.w3.org/2000/svg">
 <path d="m2 5v6h1.75v-3.25l1.25 1.25 1.25-1.25v3.25h1.75v-6h-1.5l-1.5 1.5-1.5-1.5zm9 0v3h-1.5l2 3h1l2-3h-1.5v-3z" fill="gray"/>
 <path d="m2 3c-1.108 0-2 0.892-2 2v6c0 1.108 0.892 2 2 2h12c1.108 0 2-0.892 2-2v-6c0-1.108-0.892-2-2-2h-12zm0 1h12c0.554 0 1 0.446 1 1v6c0 0.554-0.446 1-1 1h-12c-0.554 0-1-0.446-1-1v-6c0-0.554 0.446-1 1-1z" fill="gray" fill-rule="evenodd" stop-color="#000000"/>
</svg>

<svg xmlns="http://www.w3.org/2000/svg" width="16" height="16" viewBox="0 0 16 16"><path fill="gray" d="M2 5v6h1.75V7.75L5 9l1.25-1.25V11H8V5H6.5L5 6.5 3.5 5zm9 0v3H9.5l2 3h1l2-3H13V5z"/><path fill="gray" fill-rule="evenodd" d="M2 3C.892 3 0 3.892 0 5v6c0 1.108.892 2 2 2h12c1.108 0 2-.892 2-2V5c0-1.108-.892-2-2-2zm0 1h12c.554 0 1 .446 1 1v6c0 .554-.446 1-1 1H2c-.554 0-1-.446-1-1V5c0-.554.446-1 1-1"/></svg>
